src/pages/Pricing/Companies/cointelegraph.svg

<svg width="258" height="61" viewBox="0 0 258 61" fill="none" xmlns="http://www.w3.org/2000/svg">
  <path d="M37.453 43.9462L26.703 48.6332V48.1602C24.639 48.6762 22.317 48.9772 20.167 49.1062C10.019 49.0202 2.021 43.6882 1.892 37.4102V35.0882C5.203 39.9042 11.997 43.1722 20.167 43.0432C22.919 43.1722 25.757 42.7422 28.122 42.0972L29.068 39.7752C26.273 40.6352 23.177 41.1942 20.167 41.1942C10.019 41.1942 2.021 35.9052 1.892 29.4982V27.6062C5.203 32.0782 11.997 35.3032 20.167 35.0882C23.865 35.3032 27.434 34.5292 30.487 33.1962L30.96 30.8742C27.993 32.4222 24.166 33.3252 20.21 33.1962C10.062 33.3252 2.064 28.0362 1.935 21.5002V19.6082C5.246 24.1662 12.04 27.4342 20.21 27.5632C24.854 27.4342 29.24 26.1872 32.852 24.2952L33.325 21.5002C30.057 23.9082 25.284 25.4992 20.21 25.7142C10.062 25.4992 2.064 20.1672 1.935 13.5452C2.021 7.22422 10.062 1.93523 20.21 1.84923C26.23 1.93523 31.863 4.04223 35.174 7.48223L35.518 8.04122H37.883L37.539 7.48223C34.228 2.96723 27.563 0.000224166 20.21 0.000224166C8.944 -0.0427758 0 6.10623 0 13.5022V13.9752V37.8402C0.387 45.0642 9.116 50.9552 20.124 50.9552C27.391 50.9982 33.97 48.1172 37.453 43.9462Z" fill="#263238"/>
  <path d="M33.0672 60.4152L36.8512 44.3332L25.9722 49.0632L32.5942 21.1992H19.8662L23.1772 7.48218H63.8122L60.5012 21.1992H47.2572L44.4192 28.7672L59.0822 22.6182L33.0672 60.4152ZM39.6892 41.0652L37.7972 50.5252L53.4062 26.9182L40.6352 32.5942L46.3112 19.3502H59.0822L61.4472 9.41718H24.5532L22.1882 19.3502H34.9592L28.8102 45.7952L39.6892 41.0652Z" fill="#FABF2C"/>
  <path d="M90.7736 32.035V32.078C90.8166 33.583 90.3436 34.744 89.3976 35.604C88.4516 36.464 87.1616 36.894 85.4846 36.894C83.8076 36.894 82.4316 36.335 81.3996 35.26C80.3676 34.185 79.8516 32.766 79.8516 31.046V28.251C79.8516 26.531 80.3676 25.112 81.3566 24.037C82.3886 22.962 83.7216 22.403 85.3556 22.403C87.0756 22.403 88.4086 22.833 89.3976 23.65C90.3866 24.51 90.8596 25.671 90.8166 27.176V27.219H88.0646C88.0646 26.316 87.8496 25.628 87.4196 25.198C86.9896 24.768 86.3016 24.553 85.3986 24.553C84.5386 24.553 83.8936 24.897 83.4206 25.585C82.9476 26.273 82.6896 27.133 82.6896 28.208V31.046C82.6896 32.121 82.9476 33.024 83.4206 33.712C83.9366 34.4 84.6246 34.744 85.5276 34.744C86.3876 34.744 86.9896 34.529 87.4196 34.099C87.8496 33.669 88.0646 32.981 88.0646 32.078H90.7736V32.035ZM106.34 30.917C106.34 32.637 105.781 34.099 104.706 35.217C103.631 36.335 102.212 36.894 100.449 36.894C98.6856 36.894 97.3096 36.335 96.1916 35.217C95.1166 34.099 94.5576 32.637 94.5576 30.917V28.38C94.5576 26.66 95.1166 25.241 96.1916 24.08C97.2666 22.962 98.6856 22.36 100.406 22.36C102.169 22.36 103.588 22.919 104.663 24.08C105.781 25.198 106.297 26.66 106.297 28.38V30.917H106.34ZM103.502 28.337C103.502 27.219 103.244 26.359 102.685 25.628C102.126 24.94 101.395 24.553 100.406 24.553C99.4596 24.553 98.6856 24.897 98.1696 25.628C97.6536 26.316 97.3526 27.219 97.3526 28.337V30.874C97.3526 31.992 97.6106 32.895 98.1696 33.626C98.6856 34.314 99.4596 34.701 100.406 34.701C101.395 34.701 102.126 34.357 102.685 33.626C103.244 32.938 103.502 31.992 103.502 30.874V28.337ZM113.65 36.679H110.812V22.575H113.65V36.679ZM129.947 36.679H127.109L121.433 27.176H121.39V36.679H118.552V22.575H121.39L127.066 32.078H127.109V22.575H129.947V36.679ZM144.18 24.768H140.138V36.679H137.3V24.768H133.344V22.575H144.18V24.768ZM155.876 30.487H150.63V34.529H156.865V36.679H147.835V22.575H156.865V24.768H150.673V28.294H155.919V30.487H155.876ZM163.745 34.529H170.066V36.679H160.907V22.575H163.745V34.529ZM182.106 30.487H176.86V34.529H183.095V36.679H174.065V22.575H183.095V24.768H176.903V28.294H182.149V30.487H182.106ZM197.973 34.787C197.543 35.346 196.898 35.862 195.995 36.292C195.135 36.722 194.017 36.937 192.641 36.937C190.921 36.937 189.545 36.421 188.47 35.346C187.395 34.271 186.836 32.895 186.836 31.175V28.208C186.836 26.488 187.352 25.112 188.427 24.037C189.459 22.962 190.835 22.403 192.469 22.403C194.189 22.403 195.522 22.833 196.425 23.65C197.328 24.467 197.801 25.542 197.758 26.918V26.961H195.092C195.092 26.23 194.877 25.628 194.447 25.198C194.017 24.768 193.372 24.553 192.555 24.553C191.695 24.553 191.007 24.897 190.448 25.542C189.932 26.23 189.674 27.09 189.674 28.122V31.089C189.674 32.164 189.932 33.024 190.491 33.712C191.05 34.4 191.781 34.701 192.684 34.701C193.372 34.701 193.888 34.615 194.275 34.486C194.662 34.357 194.963 34.185 195.178 33.97V31.218H192.469V29.24H198.016V34.787H197.973ZM205.283 31.046V36.679H202.445V22.575H207.347C208.938 22.575 210.228 22.962 211.131 23.693C212.034 24.424 212.507 25.456 212.507 26.746C212.507 27.477 212.335 28.079 211.948 28.638C211.561 29.154 211.002 29.584 210.271 29.928C211.088 30.186 211.69 30.573 212.077 31.175C212.421 31.734 212.636 32.465 212.636 33.325V34.357C212.636 34.744 212.679 35.174 212.808 35.604C212.894 36.034 213.109 36.335 213.367 36.55V36.765H210.443C210.185 36.55 210.013 36.206 209.927 35.733C209.841 35.26 209.798 34.787 209.798 34.357V33.368C209.798 32.68 209.626 32.121 209.239 31.734C208.852 31.347 208.293 31.132 207.605 31.132H205.283V31.046ZM205.283 28.896H207.304C208.078 28.896 208.68 28.724 209.067 28.38C209.454 28.036 209.669 27.563 209.669 26.875C209.669 26.23 209.454 25.714 209.067 25.327C208.68 24.94 208.121 24.768 207.347 24.768H205.283V28.896ZM224.504 33.669H219.946L219 36.722H216.033L220.806 22.618H223.687L228.417 36.722H225.45L224.504 33.669ZM220.634 31.433H223.816L222.268 26.445H222.225L220.634 31.433ZM234.695 31.562V36.679H231.857V22.575H237.275C238.909 22.575 240.156 23.005 241.102 23.822C242.048 24.639 242.478 25.757 242.478 27.09C242.478 28.423 242.005 29.541 241.102 30.358C240.156 31.175 238.909 31.605 237.275 31.605H234.695V31.562ZM234.695 29.412H237.275C238.049 29.412 238.651 29.197 239.081 28.767C239.468 28.337 239.683 27.778 239.683 27.133C239.683 26.445 239.468 25.886 239.081 25.456C238.694 25.026 238.092 24.811 237.275 24.811H234.695V29.412ZM258.001 36.679H255.163V30.831H249.401V36.679H246.563V22.575H249.401V28.638H255.163V22.575H258.001V36.679Z" fill="#263238"/>
</svg>

<svg xmlns="http://www.w3.org/2000/svg" width="258" height="61" fill="none">
  <path fill="#263238" d="M37.5 44l-10.8 4.6v-.4c-2 .5-4.4.8-6.5 1C10 49 2 43.6 1.9 37.3v-2.3c3.3 4.8 10.1 8 18.3 8 2.7 0 5.6-.4 8-1l.9-2.3c-2.8.8-6 1.4-9 1.4-10 0-18-5.3-18.2-11.7v-1.9c3.3 4.5 10.1 7.7 18.3 7.5 3.7.2 7.2-.6 10.3-1.9l.5-2.3c-3 1.5-6.8 2.4-10.8 2.3C10.1 33.3 2.1 28 2 21.5v-1.9c3.3 4.6 10.1 7.8 18.3 8 4.7-.2 9-1.4 12.7-3.3l.4-2.8c-3.2 2.4-8 4-13 4.2C10 25.5 2 20.2 1.8 13.5 2 7.2 10.1 2 20.2 1.8c6 .1 11.7 2.2 15 5.7l.3.5H38l-.4-.5C34.2 3 27.5 0 20.2 0 9 0 0 6.1 0 13.5v24.3C.4 45.1 9.1 51 20.1 51c7.3 0 13.9-2.9 17.4-7z"/>
  <path fill="#FABF2C" d="M33 60.4l3.9-16-11 4.7 6.7-27.9H19.9l3.3-13.7h40.6l-3.3 13.7H47.3l-2.9 7.6 14.7-6.2-26 37.8zm6.7-19.3l-1.9 9.4L53.4 27l-12.8 5.7 5.7-13.2h12.8l2.3-10H24.6l-2.4 10H35l-6.2 26.4 10.9-4.7z"/>
  <path fill="#263238" d="M90.8 32c0 1.6-.5 2.7-1.4 3.6-1 .9-2.2 1.3-4 1.3-1.6 0-3-.6-4-1.6-1-1.1-1.5-2.5-1.5-4.3v-2.7a6 6 0 011.5-4.3c1-1 2.3-1.6 4-1.6 1.7 0 3 .4 4 1.3 1 .8 1.5 2 1.4 3.5h-2.7c0-.9-.3-1.6-.7-2-.4-.4-1.1-.6-2-.6-.9 0-1.5.3-2 1s-.7 1.5-.7 2.6V31c0 1.1.2 2 .7 2.7.5.7 1.2 1 2.1 1 .9 0 1.5-.2 2-.6.3-.4.6-1.1.6-2h2.7zm15.5-1a5.6 5.6 0 01-5.9 6c-1.7-.1-3-.7-4.2-1.8a6 6 0 01-1.6-4.3v-2.5a6 6 0 011.6-4.3c1-1.1 2.5-1.7 4.2-1.7 1.8 0 3.2.5 4.3 1.7a5.8 5.8 0 011.6 4.3v2.5zm-2.8-2.7c0-1-.3-2-.8-2.7-.6-.7-1.3-1-2.3-1-1 0-1.7.3-2.2 1-.5.7-.8 1.6-.8 2.7V31c0 1 .2 2 .8 2.7.5.7 1.3 1.1 2.2 1.1 1 0 1.7-.3 2.3-1 .5-.8.8-1.7.8-2.8v-2.6zm10.2 8.4h-2.9V22.6h2.9v14zm16.2 0h-2.8l-5.7-9.5v9.5h-2.8V22.6h2.8L127 32v-9.5h2.8v14zm14.3-12h-4v12h-2.9v-12h-4v-2.1h10.9v2.2zm11.7 5.8h-5.3v4h6.3v2.2h-9V22.6h9v2.2h-6.2v3.5h5.2v2.2zm7.8 4h6.4v2.2h-9.2V22.6h2.8v12zm18.4-4H177v4h6.2v2.2h-9V22.6h9v2.2h-6.2v3.5h5.2v2.2zm15.9 4.3c-.5.5-1.1 1-2 1.5-.9.4-2 .6-3.4.6-1.7 0-3-.5-4.1-1.6-1.1-1-1.7-2.4-1.7-4.1v-3c0-1.7.6-3 1.6-4.2 1-1 2.4-1.6 4-1.6 1.8 0 3.1.4 4 1.3a4 4 0 011.4 3.2H195c0-.7-.2-1.3-.7-1.7-.4-.4-1-.6-1.8-.6-1 0-1.6.3-2.2 1-.5.6-.7 1.5-.7 2.5v3c0 1 .2 2 .8 2.6.6.7 1.3 1 2.2 1a5 5 0 001.6-.2c.4-.1.7-.3.9-.5v-2.8h-2.7v-2h5.5v5.6zm7.3-3.8v5.7h-2.9V22.6h5a6 6 0 013.7 1c1 .8 1.4 1.9 1.4 3.1 0 .8-.2 1.4-.6 2-.3.5-.9.9-1.6 1.2.8.3 1.4.7 1.8 1.3.3.5.5 1.3.5 2.1v1c0 .4 0 .9.2 1.3 0 .4.3.7.6 1v.2h-3l-.5-1-.1-1.4v-1c0-.7-.2-1.3-.6-1.7-.3-.4-1-.6-1.6-.6h-2.3zm0-2.1h2c.8 0 1.4-.2 1.8-.5.4-.4.6-.8.6-1.5s-.2-1.2-.6-1.6c-.4-.4-1-.5-1.8-.5h-2v4.1zm19.2 4.8h-4.6l-.9 3h-3l4.8-14h2.9l4.7 14h-3l-.9-3zm-3.9-2.3h3.2l-1.5-5-1.7 5zm14 .2v5H232v-14h5.4c1.6 0 2.9.4 3.8 1.2 1 .8 1.4 2 1.4 3.3 0 1.3-.5 2.4-1.4 3.3-1 .8-2.2 1.2-3.8 1.2h-2.6zm0-2.2h2.7c.7 0 1.4-.2 1.8-.6.4-.5.6-1 .6-1.7s-.2-1.2-.6-1.6c-.4-.5-1-.7-1.8-.7h-2.6v4.6zm23.4 7.3h-2.8v-5.9h-5.8v5.9h-2.8V22.6h2.8v6h5.8v-6h2.8v14z"/>
</svg>
